dist/img/svg/partners__slide__2.svg

<svg width="201" height="53" viewBox="0 0 201 53" fill="none" xmlns="http://www.w3.org/2000/svg">
<g opacity="0.7">
<path d="M62.9561 26.9263C62.9561 24.1006 64.7776 21.697 67.8915 21.697C70.6883 21.697 72.8152 23.8192 72.8152 26.9263C72.8152 29.7521 71.029 32.1557 67.8915 32.1557C64.895 32.1557 62.9561 29.7755 62.9561 26.9263ZM59.3016 26.9263C59.3016 31.5225 62.7916 35.3332 67.8915 35.3332C72.6037 35.3332 76.4811 31.8977 76.4811 26.9263C76.4811 22.3653 73.0149 18.5195 67.8915 18.5195C63.0854 18.5195 59.3016 22.1542 59.3016 26.9263Z" fill="black"/>
<path d="M85.5745 25.3552V21.7674H90.1812C91.2623 21.7674 92.2962 22.4357 92.2962 23.5613C92.2962 24.7338 91.2034 25.3552 90.193 25.3552H85.5745ZM82.0613 18.5312V35.3332H85.5745V28.521H90.6271C93.5413 28.521 95.7387 26.4105 95.7387 23.5613C95.7387 20.4894 93.4715 18.5312 90.6271 18.5312H82.0613Z" fill="black"/>
<path d="M100.284 18.5195V35.3332H112.141V32.097H103.81V27.7588H110.014V24.5227H103.81V21.7556H112.141V18.5195H100.284Z" fill="black"/>
<path d="M128.049 18.5195V24.5227H120.494V18.5195H116.98V35.3332H120.494V27.7706H128.049V35.3332H131.575V18.5195H128.049Z" fill="black"/>
<path d="M136.778 32.4022C137.46 33.0119 140.163 35.3334 143.888 35.3334C146.344 35.3334 150.468 34.114 150.468 30.2096C150.468 28.357 149.07 27.0791 147.86 26.4811C148.741 25.93 149.598 24.8396 149.598 23.5264C149.598 18.4377 143.735 18.5081 143.524 18.5081C142.043 18.5081 139.81 18.7777 137.33 20.513L139.34 22.9167C140.996 21.6856 143.229 21.6973 143.5 21.6973C144.346 21.6973 146.109 21.8262 146.109 23.245C146.109 24.8748 143.888 25.2265 142.642 25.2265H140.492V28.3336H142.642C144.311 28.3336 146.966 28.6736 146.966 30.2214C146.966 30.6551 146.578 32.1325 143.888 32.1325C141.008 32.1325 138.952 29.9986 138.952 29.9986L136.778 32.4022Z" fill="black"/>
<path d="M172.534 18.5312L165.166 26.9381L157.798 18.5312H156.036V35.3332H159.549V24.851L165.166 31.2412L170.783 24.851V35.3332H174.296V18.5312H172.534Z" fill="black"/>
<path d="M189.735 18.5081L184.506 24.0305V18.5081H180.981V35.3334H184.506V28.4508L186.516 26.3169L191.78 35.3334H195.587L188.877 23.8312L193.919 18.5081H189.735Z" fill="black"/>
<mask id="mask0_471_22" style="mask-type:luminance" maskUnits="userSpaceOnUse" x="0" y="6" width="42" height="42">
<path d="M42 6H0V47.3438H42V6Z" fill="white"/>
</mask>
<g mask="url(#mask0_471_22)">
<path d="M21.048 39.3418L21.7207 42.676L24.604 42.2949L25.1806 38.6749C27.3912 38.1033 28.1601 37.1507 28.1601 37.1507L31.2356 39.056L33.35 36.9602C33.35 36.9602 31.2356 34.1024 31.4278 33.9119C32.485 32.864 32.9655 30.9588 32.9655 30.9588L36.7138 30.3872L37.0983 27.5293L33.6383 26.7672V26.1003H31.7161V26.4814C31.7161 26.5766 31.7161 26.5766 31.7161 26.6719C31.7161 32.5782 26.8145 37.4365 20.8557 37.4365C20.7596 37.4365 20.5674 37.4365 20.4713 37.4365V39.3418H21.048Z" fill="#3F3F3F"/>
<path d="M20.4714 6H0V26.2909H20.4714V6Z" fill="black"/>
<path d="M19.7023 6.76221H0.768707V25.5289H19.7023V6.76221Z" fill="black"/>
<path d="M42.0963 6H21.6248V26.2909H42.0963V6Z" fill="black"/>
<path d="M41.3272 6.76221H22.3936V25.5289H41.3272V6.76221Z" fill="black"/>
<path d="M20.4714 27.1482H0V47.4391H20.4714V27.1482Z" fill="black"/>
<path d="M19.7023 27.8149H0.768707V46.5816H19.7023V27.8149Z" fill="black"/>
<path d="M20.8558 37.3413C26.8538 37.3413 31.7162 32.5218 31.7162 26.5766C31.7162 20.6315 26.8538 15.812 20.8558 15.812C14.8577 15.812 9.99536 20.6315 9.99536 26.5766C9.99536 32.5218 14.8577 37.3413 20.8558 37.3413Z" fill="white"/>
<path d="M20.8558 35.7217C25.9514 35.7217 30.0823 31.6273 30.0823 26.5766C30.0823 21.5259 25.9514 17.4314 20.8558 17.4314C15.7601 17.4314 11.6292 21.5259 11.6292 26.5766C11.6292 31.6273 15.7601 35.7217 20.8558 35.7217Z" fill="#3F3F3F"/>
</g>
</g>
</svg>

<svg width="201" height="53" viewBox="0 0 201 53" fill="none" xmlns="http://www.w3.org/2000/svg"><g opacity=".7"><path d="M62.956 26.926c0-2.825 1.822-5.229 4.935-5.229 2.797 0 4.924 2.122 4.924 5.23 0 2.825-1.786 5.229-4.924 5.229-2.996 0-4.935-2.38-4.935-5.23zm-3.654 0c0 4.597 3.49 8.407 8.59 8.407 4.712 0 8.59-3.435 8.59-8.407 0-4.56-3.467-8.406-8.59-8.406-4.807 0-8.59 3.634-8.59 8.406zm26.273-1.571v-3.588h4.606c1.081 0 2.115.669 2.115 1.794 0 1.173-1.093 1.794-2.103 1.794h-4.618zm-3.514-6.824v16.802h3.513v-6.812h5.053c2.914 0 5.112-2.11 5.112-4.96 0-3.072-2.267-5.03-5.112-5.03h-8.566zm18.223-.011v16.813h11.857v-3.236h-8.331v-4.338h6.204v-3.236h-6.204v-2.767h8.331V18.52h-11.857zm27.765 0v6.003h-7.555V18.52h-3.514v16.813h3.514v-7.562h7.555v7.562h3.526V18.52h-3.526zm8.729 13.882c.682.61 3.385 2.931 7.11 2.931 2.456 0 6.58-1.219 6.58-5.123 0-1.853-1.398-3.13-2.608-3.729.881-.551 1.738-1.641 1.738-2.955 0-5.088-5.863-5.018-6.074-5.018-1.481 0-3.714.27-6.194 2.005l2.01 2.404c1.656-1.231 3.889-1.22 4.16-1.22.846 0 2.609.13 2.609 1.548 0 1.63-2.221 1.982-3.467 1.982h-2.15v3.107h2.15c1.669 0 4.324.34 4.324 1.887 0 .434-.388 1.912-3.078 1.912-2.88 0-4.936-2.134-4.936-2.134l-2.174 2.403zm35.756-13.871l-7.368 8.407-7.368-8.407h-1.762v16.802h3.513V24.851l5.617 6.39 5.617-6.39v10.482h3.513V18.531h-1.762zm17.201-.023l-5.229 5.523v-5.523h-3.525v16.825h3.525v-6.882l2.01-2.134 5.264 9.016h3.807l-6.71-11.502 5.042-5.323h-4.184z" fill="#000"/><mask id="mask0_471_22" style="mask-type:luminance" maskUnits="userSpaceOnUse" x="0" y="6" width="42" height="42"><path d="M42 6H0v41.344h42V6z" fill="#fff"/></mask><g mask="url(#mask0_471_22)"><path d="M21.048 39.342l.673 3.334 2.883-.381.577-3.62c2.21-.572 2.98-1.524 2.98-1.524l3.075 1.905 2.114-2.096s-2.114-2.858-1.922-3.048c1.057-1.048 1.537-2.953 1.537-2.953l3.749-.572.384-2.858-3.46-.762V26.1h-1.922v.571c0 5.907-4.902 10.766-10.86 10.766h-.385v1.905h.577z" fill="#3F3F3F"/><path d="M20.471 6H0v20.29h20.471V6z" fill="#000"/><path d="M19.702 6.762H.77V25.53h18.933V6.762zM42.096 6H21.625v20.29h20.471V6z" fill="#000"/><path d="M41.327 6.762H22.394V25.53h18.933V6.762zM20.471 27.148H0V47.44h20.471V27.15z" fill="#000"/><path d="M19.702 27.815H.77v18.767h18.933V27.815z" fill="#000"/><path d="M20.856 37.341c5.998 0 10.86-4.82 10.86-10.764 0-5.946-4.862-10.765-10.86-10.765-5.998 0-10.86 4.82-10.86 10.765s4.862 10.764 10.86 10.764z" fill="#fff"/><path d="M20.856 35.722c5.095 0 9.226-4.095 9.226-9.145 0-5.051-4.13-9.146-9.226-9.146-5.096 0-9.227 4.095-9.227 9.146 0 5.05 4.131 9.145 9.227 9.145z" fill="#3F3F3F"/></g></g></svg>
